svg/furkot/icomoon/close.svg

<svg viewBox="0 0 512 512" xmlns="http://www.w3.org/2000/svg"><path d="m507.328 411.328s-.008-.008-.008-.008l-155.32-155.328 155.32-155.328s.008 0 .008-.008c1.672-1.672 2.88-3.624 3.656-5.704 2.12-5.688.912-12.344-3.664-16.912l-73.376-73.376c-4.576-4.576-11.224-5.784-16.912-3.664-2.08.776-4.032 1.984-5.712 3.656 0 0 0 0-.008.008l-155.328 155.328-155.328-155.328s0 0-.008-.008c-1.672-1.672-3.624-2.88-5.704-3.656-5.688-2.128-12.344-.912-16.912 3.656l-73.376 73.376c-4.576 4.576-5.784 11.224-3.664 16.912.776 2.08 1.984 4.04 3.656 5.704 0 0 0 0 .008.008l155.328 155.328-155.328 155.328v.008c-1.672 1.672-2.88 3.624-3.656 5.704-2.128 5.688-.912 12.344 3.664 16.912l73.376 73.376c4.576 4.576 11.224 5.784 16.912 3.664 2.08-.776 4.032-1.984 5.704-3.656 0 0 0 0 .008-.008l155.328-155.328 155.328 155.328s.008 0 .008.008c1.672 1.672 3.624 2.88 5.704 3.656 5.688 2.12 12.344.912 16.912-3.664l73.376-73.376c4.576-4.576 5.784-11.224 3.664-16.912-.776-2.08-1.984-4.032-3.656-5.704z"/></svg>

<svg xmlns="http://www.w3.org/2000/svg" viewBox="0 0 512 512"><path d="M507.328 411.328C507.328 411.328 507.32 411.32 507.32 411.32L352 255.992 507.32 100.664C507.32 100.664 507.328 100.664 507.328 100.656 509 98.984 510.208 97.032 510.984 94.952 513.104 89.264 511.896 82.608 507.32 78.04L433.944 4.664C429.368 0.088 422.72-1.12 417.032 1 414.952 1.776 413 2.984 411.32 4.656 411.32 4.656 411.32 4.656 411.312 4.664L255.984 159.992 100.656 4.664C100.656 4.664 100.656 4.664 100.648 4.656 98.976 2.984 97.024 1.776 94.944 1 89.256-1.128 82.6 0.088 78.032 4.656L4.656 78.032C0.08 82.608-1.128 89.256 0.992 94.944 1.768 97.024 2.976 98.984 4.648 100.648 4.648 100.648 4.648 100.648 4.656 100.656L159.984 255.984 4.656 411.312C4.656 411.312 4.656 411.312 4.656 411.32 2.984 412.992 1.776 414.944 1 417.024-1.128 422.712 0.088 429.368 4.664 433.936L78.04 507.312C82.616 511.888 89.264 513.096 94.952 510.976 97.032 510.2 98.984 508.992 100.656 507.32 100.656 507.32 100.656 507.32 100.664 507.312L255.992 351.984 411.32 507.312C411.32 507.312 411.328 507.312 411.328 507.32 413 508.992 414.952 510.2 417.032 510.976 422.72 513.096 429.376 511.888 433.944 507.312L507.32 433.936C511.896 429.36 513.104 422.712 510.984 417.024 510.208 414.944 509 412.992 507.328 411.32Z"/></svg>
